assets/Snow-capped mountain/Flat/snow-capped_mountain_flat.svg

<svg width="32" height="32" viewBox="0 0 32 32" fill="none" xmlns="http://www.w3.org/2000/svg">
<path d="M11.0243 8.30541C15.8014 11.5523 17.2028 4.93795 22.3198 9.50719L29.7522 19.3905L29.7458 19.3931H29.7522V21.5L22.4998 27.5L2.77588 22V19.3905L11.0243 8.30541Z" fill="#8C5543"/>
<path d="M22.8378 10.1957C22.7127 10.1634 22.5899 10.137 22.4693 10.116C22.6172 10.171 22.7672 10.2335 22.9195 10.3043L22.8378 10.1957Z" fill="#7D4533"/>
<path d="M3.49142 22.431L4.5 21.5001C3.64193 20.6419 3.55366 19.2804 4.29373 18.3186L10.4321 10.3413C10.7198 10.3413 10.9653 10.346 11.1816 10.3556C10.5799 10.0759 9.96211 9.70154 9.43211 9.34131L1.875 19.3905L1.88136 19.393H1.875V22L3.49142 22.431Z" fill="#7D4533"/>
<path d="M29.7524 21.4004C28.2533 22.1852 26.1594 23.0888 23.9747 23.5895C20.2247 24.4488 16.959 24.3238 10.9278 22.0582C6.85699 20.529 3.50653 20.9961 1.875 21.5058V28.9541H29.7524V21.4004Z" fill="#00D26A"/>
<path d="M9.90869 9.94911C10.5946 10.38 11.3637 10.7863 12.0367 10.9802C13.8804 11.5115 14.9429 11.2927 16.7554 10.1365C18.5089 9.01785 20.1175 8.44545 22.714 10.0316L18.4507 4.3624C16.6016 2.98428 14.7253 3.51172 13.7201 4.84848L9.90869 9.94911Z" fill="white"/>
<path d="M10.4734 10.286C10.0532 10.0492 9.64514 9.78677 9.28516 9.53634L13.176 4.3625C14.4961 2.60703 17.1307 2.60703 18.4509 4.3625L18.6113 4.57587C17.2116 3.66568 15.2548 3.92788 14.176 5.3625L10.4734 10.286Z" fill="#CDC4D6"/>
</svg>

<svg xmlns="http://www.w3.org/2000/svg" width="32" height="32" fill="none"><path fill="#8C5543" d="M11.024 8.305c4.777 3.247 6.179-3.367 11.296 1.202l7.432 9.883-.006.003h.006V21.5l-7.252 6L2.776 22v-2.61l8.248-11.085Z"/><path fill="#7D4533" d="M22.838 10.196a4.695 4.695 0 0 0-.369-.08c.148.055.298.117.45.188l-.081-.108ZM3.491 22.431l1.009-.93a2.416 2.416 0 0 1-.206-3.182l6.138-7.978c.288 0 .533.005.75.015-.602-.28-1.22-.654-1.75-1.015l-7.557 10.05.006.002h-.006V22l1.616.431Z"/><path fill="#00D26A" d="M29.752 21.4c-1.499.785-3.593 1.689-5.777 2.19-3.75.859-7.016.734-13.047-1.532-4.071-1.529-7.421-1.062-9.053-.552v7.448h27.877V21.4Z"/><path fill="#fff" d="M9.909 9.95c.686.43 1.455.836 2.128 1.03 1.843.531 2.906.313 4.718-.844 1.754-1.118 3.363-1.69 5.959-.104l-4.263-5.67c-1.85-1.378-3.726-.85-4.73.486L9.908 9.95Z"/><path fill="#CDC4D6" d="M10.473 10.286c-.42-.237-.828-.5-1.188-.75l3.891-5.173a3.3 3.3 0 0 1 5.275 0l.16.213a3.303 3.303 0 0 0-4.435.787l-3.703 4.923Z"/></svg>
